src/icons/ff-with-text.svg

<svg width="168" height="56" viewBox="0 0 168 56" fill="none" xmlns="http://www.w3.org/2000/svg">
<rect width="168" height="56" fill="white"/>
<path d="M29.2901 10.5996C25.762 9.97753 22.3976 12.3333 21.7755 15.8614L18.5996 33.8724C17.9775 37.4005 20.3333 40.7649 23.8614 41.387L33.2984 43.051C33.4663 43.0806 33.5919 42.9 33.5056 42.7529L24.6031 27.5702C24.2324 26.9837 24.2376 25.8421 24.666 25.5701C24.7642 25.507 25.0558 25.2464 25.0558 25.2464L25.554 24.7015L25.6359 24.6117C26.0981 24.1036 26.5157 23.6445 27.8355 22.9838L28.1195 22.8849C30.0554 22.2803 31.1318 22.324 32.2083 22.3677C33.2853 22.4114 34.3624 22.4551 36.3001 21.8498C37.8904 21.3531 39.3368 20.3777 40.1429 19.766C40.5008 19.4944 41.0292 19.5737 41.2671 19.9548L47.013 29.1558C47.1917 29.442 47.147 29.812 46.8859 30.0257C46.2652 30.5334 45.0107 31.4283 43.3439 31.9489C41.408 32.5535 40.3036 32.5273 39.1991 32.5011C38.0942 32.4748 36.9891 32.4485 35.0513 33.0538C33.345 33.5868 32.6641 34.2904 32.4372 34.5941C32.3902 34.6569 32.3659 34.8017 32.4037 34.8704C32.8601 35.7013 35.315 40.0216 37.2235 43.3759C37.3708 43.6347 37.6255 43.814 37.9188 43.8657L41.8724 44.5629C45.4005 45.185 48.7649 42.8292 49.387 39.3011L52.5629 21.2901C53.185 17.762 50.8292 14.3976 47.3011 13.7755L29.2901 10.5996Z" fill="url(#paint0_linear)"/>
<path d="M36.8081 24.3429C35.1788 24.768 34.1916 24.737 33.2045 24.7061C32.2177 24.6751 31.2311 24.6442 29.6035 25.0688C28.6597 25.3425 28.1151 25.823 27.5965 26.436C27.5415 26.5009 27.5351 26.5939 27.5794 26.6666L30.7307 31.833C30.7951 31.9386 30.9397 31.9624 31.0377 31.8869C31.4717 31.5527 32.6346 30.7383 34.1085 30.3537C35.9445 29.8747 37.0435 29.8854 38.2006 29.8966C39.0968 29.9053 40.0279 29.9143 41.3634 29.6965C42.2592 29.5504 42.9905 29.161 43.3981 28.902C43.6054 28.7702 43.6498 28.4989 43.5166 28.2926L40.3397 23.375C40.1911 23.145 39.8787 23.0807 39.6405 23.2155C39.1179 23.5113 38.1361 23.9964 36.8081 24.3429Z" fill="url(#paint1_linear)"/>
<path d="M61.0044 33.0001H62.8489V28.6748H67.0797V27.1286H62.8489V24.3644H67.5271V22.8182H61.0044V33.0001Z" fill="black"/>
<path d="M71.9481 33.1492C73.7279 33.1492 74.951 32.2792 75.2691 30.9518L73.5887 30.7628C73.3451 31.4091 72.7485 31.7472 71.973 31.7472C70.8096 31.7472 70.039 30.9816 70.0241 29.6741H75.3437V29.1222C75.3437 26.4425 73.7329 25.2643 71.8536 25.2643C69.6661 25.2643 68.2393 26.8701 68.2393 29.2266C68.2393 31.6229 69.6463 33.1492 71.9481 33.1492ZM70.0291 28.461C70.0838 27.4866 70.8046 26.6662 71.8785 26.6662C72.9126 26.6662 73.6086 27.4219 73.6186 28.461H70.0291Z" fill="black"/>
<path d="M79.0637 33.1542C80.2619 33.1542 80.9778 32.5924 81.3059 31.951H81.3655V33.0001H83.0957V27.8893C83.0957 25.8708 81.4501 25.2643 79.9934 25.2643C78.3876 25.2643 77.1546 25.9802 76.7569 27.3722L78.4373 27.6109C78.6163 27.0888 79.1234 26.6414 80.0033 26.6414C80.8386 26.6414 81.2959 27.0689 81.2959 27.8197V27.8495C81.2959 28.3665 80.754 28.3914 79.4067 28.5356C77.9252 28.6947 76.5083 29.1371 76.5083 30.8573C76.5083 32.3587 77.607 33.1542 79.0637 33.1542ZM79.531 31.8317C78.7803 31.8317 78.2434 31.4887 78.2434 30.8275C78.2434 30.1364 78.8449 29.8481 79.6503 29.7337C80.1226 29.6691 81.0672 29.5498 81.3009 29.3609V30.2607C81.3009 31.1109 80.6148 31.8317 79.531 31.8317Z" fill="black"/>
<path d="M88.7185 25.3637H87.2121V23.5341H85.4124V25.3637H84.3286V26.7557H85.4124V31.0015C85.4025 32.4383 86.4465 33.1442 87.7988 33.1045C88.3109 33.0895 88.6638 32.9901 88.8577 32.9255L88.5545 31.5185C88.455 31.5434 88.2512 31.5881 88.0275 31.5881C87.5751 31.5881 87.2121 31.429 87.2121 30.7032V26.7557H88.7185V25.3637Z" fill="black"/>
<path d="M95.0909 29.7884C95.0909 30.9518 94.2606 31.5285 93.4652 31.5285C92.6001 31.5285 92.0234 30.917 92.0234 29.9475V25.3637H90.2237V30.2259C90.2237 32.0604 91.2677 33.0995 92.7691 33.0995C93.9126 33.0995 94.718 32.4979 95.066 31.6428H95.1456V33.0001H96.8906V25.3637H95.0909V29.7884Z" fill="black"/>
<path d="M98.7413 33.0001H100.541V28.5107C100.541 27.5412 101.272 26.8552 102.261 26.8552C102.564 26.8552 102.942 26.9099 103.096 26.9596V25.304C102.932 25.2742 102.649 25.2543 102.45 25.2543C101.575 25.2543 100.844 25.7515 100.566 26.6364H100.486V25.3637H98.7413V33.0001Z" fill="black"/>
<path d="M107.358 33.1492C109.138 33.1492 110.361 32.2792 110.679 30.9518L108.999 30.7628C108.755 31.4091 108.159 31.7472 107.383 31.7472C106.22 31.7472 105.449 30.9816 105.434 29.6741H110.754V29.1222C110.754 26.4425 109.143 25.2643 107.264 25.2643C105.076 25.2643 103.649 26.8701 103.649 29.2266C103.649 31.6229 105.056 33.1492 107.358 33.1492ZM105.439 28.461C105.494 27.4866 106.215 26.6662 107.289 26.6662C108.323 26.6662 109.019 27.4219 109.029 28.461H105.439Z" fill="black"/>
<path d="M115.829 33.0001H117.673V28.6748H121.904V27.1286H117.673V24.3644H122.351V22.8182H115.829V33.0001Z" fill="black"/>
<path d="M125.752 22.8182H123.952V33.0001H125.752V22.8182Z" fill="black"/>
<path d="M129.8 33.1542C130.998 33.1542 131.714 32.5924 132.042 31.951H132.102V33.0001H133.832V27.8893C133.832 25.8708 132.186 25.2643 130.73 25.2643C129.124 25.2643 127.891 25.9802 127.493 27.3722L129.174 27.6109C129.353 27.0888 129.86 26.6414 130.74 26.6414C131.575 26.6414 132.032 27.0689 132.032 27.8197V27.8495C132.032 28.3665 131.49 28.3914 130.143 28.5356C128.662 28.6947 127.245 29.1371 127.245 30.8573C127.245 32.3587 128.343 33.1542 129.8 33.1542ZM130.267 31.8317C129.517 31.8317 128.98 31.4887 128.98 30.8275C128.98 30.1364 129.581 29.8481 130.387 29.7337C130.859 29.6691 131.804 29.5498 132.037 29.3609V30.2607C132.037 31.1109 131.351 31.8317 130.267 31.8317Z" fill="black"/>
<path d="M138.963 36.0228C141.026 36.0228 142.547 35.0782 142.547 33.1243V25.3637H140.772V26.6265H140.673C140.399 26.0746 139.828 25.2643 138.48 25.2643C136.716 25.2643 135.328 26.6464 135.328 29.157C135.328 31.6478 136.716 32.8907 138.475 32.8907C139.783 32.8907 140.394 32.1897 140.673 31.6279H140.762V33.0746C140.762 34.1982 140.017 34.6606 138.992 34.6606C137.909 34.6606 137.431 34.1485 137.213 33.701L135.592 34.0938C135.92 35.1627 137.019 36.0228 138.963 36.0228ZM138.978 31.4787C137.789 31.4787 137.163 30.554 137.163 29.1471C137.163 27.76 137.779 26.7408 138.978 26.7408C140.136 26.7408 140.772 27.7003 140.772 29.1471C140.772 30.6037 140.126 31.4787 138.978 31.4787Z" fill="black"/>
<path d="M150.427 27.3822C150.179 26.0895 149.144 25.2643 147.355 25.2643C145.515 25.2643 144.262 26.1691 144.267 27.581C144.262 28.6947 144.948 29.4305 146.415 29.7337L147.718 30.0072C148.419 30.1613 148.747 30.4447 148.747 30.8772C148.747 31.3992 148.18 31.792 147.325 31.792C146.5 31.792 145.963 31.434 145.809 30.7479L144.054 30.917C144.277 32.3189 145.456 33.1492 147.33 33.1492C149.239 33.1492 150.586 32.1599 150.591 30.7131C150.586 29.6243 149.885 28.9582 148.443 28.6449L147.141 28.3665C146.365 28.1925 146.057 27.9241 146.062 27.4816C146.057 26.9645 146.629 26.6066 147.38 26.6066C148.21 26.6066 148.647 27.059 148.787 27.5611L150.427 27.3822Z" fill="black"/>
<defs>
<linearGradient id="paint0_linear" x1="24.5465" y1="10.5" x2="45.7256" y2="43.2842" gradientUnits="userSpaceOnUse">
<stop stop-color="#FFC100"/>
<stop offset="1" stop-color="#E66B35"/>
</linearGradient>
<linearGradient id="paint1_linear" x1="24.5465" y1="10.5" x2="45.7256" y2="43.2842" gradientUnits="userSpaceOnUse">
<stop stop-color="#FFC100"/>
<stop offset="1" stop-color="#E66B35"/>
</linearGradient>
</defs>
</svg>

<svg width="168" height="56" fill="none" xmlns="http://www.w3.org/2000/svg"><path fill="#fff" d="M0 0h168v56H0z"/><path d="M29.29 10.6a6.487 6.487 0 00-7.514 5.261L18.6 33.872a6.487 6.487 0 005.261 7.515l9.437 1.664a.2.2 0 00.208-.298L24.603 27.57c-.37-.586-.365-1.728.063-2 .098-.063.39-.324.39-.324l.498-.544.082-.09c.462-.508.88-.967 2.2-1.628l.284-.1c1.935-.604 3.012-.56 4.088-.516 1.077.043 2.154.087 4.092-.518 1.59-.497 3.037-1.472 3.843-2.084.358-.272.886-.192 1.124.189l5.746 9.2a.662.662 0 01-.127.87c-.62.508-1.875 1.403-3.542 1.924-1.936.604-3.04.578-4.145.552-1.105-.026-2.21-.052-4.148.553-1.706.533-2.387 1.236-2.614 1.54-.047.063-.071.208-.033.276.456.831 2.911 5.152 4.82 8.506a1 1 0 00.695.49l3.953.697a6.487 6.487 0 007.515-5.262l3.176-18.01a6.487 6.487 0 00-5.262-7.516L29.291 10.6z" fill="url(#paint0_linear)"/><path d="M36.808 24.343c-1.63.425-2.616.394-3.603.363-.987-.03-1.974-.062-3.601.363-.944.274-1.489.754-2.008 1.367a.198.198 0 00-.017.23l3.152 5.167a.21.21 0 00.307.054c.434-.334 1.597-1.149 3.07-1.533 1.837-.48 2.936-.469 4.093-.457.896.008 1.827.017 3.162-.2.896-.147 1.627-.536 2.035-.795a.434.434 0 00.119-.61l-3.177-4.917a.527.527 0 00-.7-.16c-.522.296-1.504.781-2.832 1.128z" fill="url(#paint1_linear)"/><path d="M61.004 33h1.845v-4.325h4.23v-1.546h-4.23v-2.765h4.678v-1.546h-6.523V33zM71.948 33.15c1.78 0 3.003-.87 3.321-2.198l-1.68-.19c-.244.647-.84.985-1.616.985-1.163 0-1.934-.765-1.949-2.073h5.32v-.552c0-2.68-1.611-3.858-3.49-3.858-2.188 0-3.615 1.606-3.615 3.963 0 2.396 1.407 3.922 3.71 3.922zM70.03 28.46c.055-.974.776-1.795 1.85-1.795 1.034 0 1.73.756 1.74 1.795h-3.59zM79.064 33.154c1.198 0 1.914-.562 2.242-1.203h.06v1.05h1.73v-5.112c0-2.018-1.646-2.625-3.103-2.625-1.605 0-2.838.716-3.236 2.108l1.68.239c.18-.522.686-.97 1.566-.97.836 0 1.293.428 1.293 1.179v.03c0 .516-.542.541-1.89.686-1.48.159-2.898.601-2.898 2.321 0 1.502 1.099 2.297 2.556 2.297zm.467-1.322c-.75 0-1.288-.343-1.288-1.005 0-.69.602-.979 1.407-1.093.473-.065 1.417-.184 1.65-.373v.9c0 .85-.685 1.57-1.769 1.57zM88.719 25.364h-1.507v-1.83h-1.8v1.83H84.33v1.392h1.083V31c-.01 1.437 1.034 2.143 2.387 2.104a3.62 3.62 0 001.059-.18l-.303-1.406c-.1.024-.304.07-.528.07-.452 0-.815-.16-.815-.886v-3.947h1.507v-1.392zM95.09 29.788c0 1.164-.83 1.74-1.625 1.74-.865 0-1.442-.611-1.442-1.58v-4.584h-1.8v4.862c0 1.834 1.045 2.873 2.546 2.873 1.144 0 1.949-.601 2.297-1.456h.08V33h1.745v-7.636h-1.8v4.424zM98.741 33h1.8v-4.49c0-.969.731-1.655 1.72-1.655.303 0 .681.055.835.105v-1.656a4.32 4.32 0 00-.646-.05c-.875 0-1.606.497-1.884 1.382h-.08v-1.272h-1.745V33zM107.358 33.15c1.78 0 3.003-.87 3.321-2.198l-1.68-.19c-.244.647-.84.985-1.616.985-1.163 0-1.934-.765-1.949-2.073h5.32v-.552c0-2.68-1.611-3.858-3.49-3.858-2.188 0-3.615 1.606-3.615 3.963 0 2.396 1.407 3.922 3.709 3.922zm-1.919-4.689c.055-.974.776-1.795 1.85-1.795 1.034 0 1.73.756 1.74 1.795h-3.59zM115.829 33h1.844v-4.325h4.231v-1.546h-4.231v-2.765h4.678v-1.546h-6.522V33zM125.752 22.818h-1.8V33h1.8V22.818zM129.8 33.154c1.198 0 1.914-.562 2.242-1.203h.06v1.05h1.73v-5.112c0-2.018-1.646-2.625-3.102-2.625-1.606 0-2.839.716-3.237 2.108l1.681.239c.179-.522.686-.97 1.566-.97.835 0 1.292.428 1.292 1.179v.03c0 .516-.542.541-1.889.686-1.481.159-2.898.601-2.898 2.321 0 1.502 1.098 2.297 2.555 2.297zm.467-1.322c-.75 0-1.287-.343-1.287-1.005 0-.69.601-.979 1.407-1.093.472-.065 1.417-.184 1.65-.373v.9c0 .85-.686 1.57-1.77 1.57zM138.963 36.023c2.063 0 3.584-.945 3.584-2.899v-7.76h-1.775v1.262h-.099c-.274-.551-.845-1.362-2.193-1.362-1.764 0-3.152 1.382-3.152 3.893 0 2.49 1.388 3.734 3.147 3.734 1.308 0 1.919-.701 2.198-1.263h.089v1.447c0 1.123-.745 1.586-1.77 1.586-1.083 0-1.561-.513-1.779-.96l-1.621.393c.328 1.069 1.427 1.929 3.371 1.929zm.015-4.544c-1.189 0-1.815-.925-1.815-2.332 0-1.387.616-2.406 1.815-2.406 1.158 0 1.794.96 1.794 2.406 0 1.457-.646 2.332-1.794 2.332zM150.427 27.382c-.248-1.293-1.283-2.118-3.072-2.118-1.84 0-3.093.905-3.088 2.317-.005 1.114.681 1.85 2.148 2.153l1.303.273c.701.154 1.029.438 1.029.87 0 .522-.567.915-1.422.915-.825 0-1.362-.358-1.516-1.044l-1.755.169c.223 1.402 1.402 2.232 3.276 2.232 1.909 0 3.256-.99 3.261-2.436-.005-1.089-.706-1.755-2.148-2.068l-1.302-.279c-.776-.174-1.084-.442-1.079-.884-.005-.517.567-.875 1.318-.875.83 0 1.267.452 1.407.954l1.64-.179z" fill="#000"/><defs><linearGradient id="paint0_linear" x1="24.547" y1="10.5" x2="45.726" y2="43.284" gradientUnits="userSpaceOnUse"><stop stop-color="#FFC100"/><stop offset="1" stop-color="#E66B35"/></linearGradient><linearGradient id="paint1_linear" x1="24.547" y1="10.5" x2="45.726" y2="43.284" gradientUnits="userSpaceOnUse"><stop stop-color="#FFC100"/><stop offset="1" stop-color="#E66B35"/></linearGradient></defs></svg>
